X:47
T:no name
R:hop jig
D:Matt Molloy: Stony Steps
Z:id:hn-slipjig-47
M:9/8
K:D
F2A A2B A3|F2A A2A Bcd|F2A A2B A3|e2f e2d B2A:|
|:f2a a2f d3|e2f e2d B2A|f2d e2c d3|B2=c B2A FED:|
<end>
<start>
